images/svg/icons-shop/statistika.svg

<svg width="21" height="19" viewBox="0 0 21 19" fill="none" xmlns="http://www.w3.org/2000/svg">
<path d="M18.0352 0.141321C19.2366 0.0663046 20.2316 1.06186 20.1559 2.26322L19.9458 5.59632C19.9244 5.93635 19.6312 6.19449 19.2912 6.17262C18.9517 6.15079 18.6941 5.85803 18.7156 5.51853L18.7448 5.05859C18.8076 4.06946 17.6143 3.52731 16.9106 4.22524L12.4915 8.60795C12.0075 9.08788 11.2281 9.09095 10.7404 8.61484L9.6292 7.52476C8.84843 6.75888 7.59726 6.76219 6.82056 7.5322L1.04631 13.2568C0.658742 13.641 0 13.3665 0 12.8207C0 12.6569 0.0654776 12.4998 0.181866 12.3845L6.81597 5.81186C7.59241 5.04262 8.84257 5.03914 9.62328 5.80405L10.2032 6.37221C10.984 7.13728 12.2345 7.13362 13.0109 6.36398L16.0157 3.38528C16.7231 2.68397 16.1838 1.48041 15.1895 1.54172L14.721 1.5706C14.3847 1.59134 14.0953 1.33545 14.0747 0.99913C14.054 0.663135 14.3095 0.373954 14.6455 0.352976L18.0352 0.141321Z" fill="#D4DCE2"/>
<path d="M1.51953 16.2755C1.51953 15.3869 2.23989 14.6665 3.12849 14.6665C4.0171 14.6665 4.73746 15.3869 4.73746 16.2755V16.9841C4.73746 17.8727 4.0171 18.593 3.12849 18.593C2.23989 18.593 1.51953 17.8727 1.51953 16.9841V16.2755Z" fill="#D4DCE2"/>
<path d="M5.97559 13.3316C5.97559 12.443 6.69594 11.7227 7.58455 11.7227C8.47315 11.7227 9.19351 12.443 9.19351 13.3316V16.9854C9.19351 17.874 8.47315 18.5944 7.58455 18.5944C6.69594 18.5944 5.97559 17.874 5.97559 16.9854V13.3316Z" fill="#D4DCE2"/>
<path d="M10.4316 14.8028C10.4316 13.9142 11.152 13.1938 12.0406 13.1938C12.9292 13.1938 13.6496 13.9142 13.6496 14.8028V16.9837C13.6496 17.8723 12.9292 18.5927 12.0406 18.5927C11.152 18.5927 10.4316 17.8723 10.4316 16.9837V14.8028Z" fill="#D4DCE2"/>
<path d="M14.8867 11.1231C14.8867 10.2345 15.6071 9.51416 16.4957 9.51416C17.3843 9.51416 18.1046 10.2345 18.1046 11.1231V16.9855C18.1046 17.8741 17.3843 18.5945 16.4957 18.5945C15.6071 18.5945 14.8867 17.8741 14.8867 16.9855V11.1231Z" fill="#D4DCE2"/>
</svg>

<svg width="21" height="19" fill="none" xmlns="http://www.w3.org/2000/svg"><path d="M18.035.141a2 2 0 0 1 2.12 2.122l-.21 3.333a.616.616 0 1 1-1.23-.077l.03-.46c.063-.99-1.13-1.532-1.834-.834l-4.42 4.383a1.248 1.248 0 0 1-1.75.007l-1.112-1.09a2 2 0 0 0-2.808.007l-5.775 5.725a.614.614 0 1 1-.864-.873l6.634-6.572a2 2 0 0 1 2.807-.008l.58.568a2 2 0 0 0 2.808-.008l3.005-2.979c.707-.701.168-1.905-.826-1.843l-.469.029a.61.61 0 0 1-.075-1.218l3.39-.212ZM1.52 16.276a1.609 1.609 0 1 1 3.217 0v.708a1.609 1.609 0 0 1-3.217 0v-.709ZM5.976 13.332a1.609 1.609 0 0 1 3.218 0v3.653a1.609 1.609 0 1 1-3.218 0v-3.653ZM10.432 14.803a1.609 1.609 0 0 1 3.218 0v2.18a1.609 1.609 0 0 1-3.218 0v-2.18ZM14.887 11.123a1.609 1.609 0 0 1 3.218 0v5.862a1.609 1.609 0 1 1-3.218 0v-5.862Z" fill="#D4DCE2"/></svg>
